X: 60
M:6/8
L:1/8
K:G
|:B|dcd "tr"BAG|BdG BAG|dcd BAG|BAA A2 B/2c/2|
1dcd BAG|BdG BAG|ABc "tr"B2 A|GED D2:|
2dcd efg|afd edB|cdc "tr"B2 A|GED D2||

